src/assets/partners/tic.svg

<svg width="73" height="29" viewBox="0 0 73 29" fill="none" xmlns="http://www.w3.org/2000/svg">
<g clip-path="url(#clip0_2647_2)">
<path d="M67.8899 11.9195H64.0599C63.8499 11.9195 63.6899 11.9195 63.6199 11.6395C62.9399 8.66952 61.9999 7.75952 58.9999 7.39952C57.6633 7.24319 56.3097 7.32102 54.9999 7.62952C54.2039 7.77559 53.471 8.15965 52.8979 8.73098C52.3248 9.30231 51.9384 10.034 51.7899 10.8295C51.2299 13.1698 51.2299 15.6092 51.7899 17.9495C51.9384 18.745 52.3248 19.4767 52.8979 20.0481C53.471 20.6194 54.2039 21.0034 54.9999 21.1495C56.5382 21.5017 58.1343 21.5188 59.6799 21.1995C60.8074 21.0194 61.8323 20.4391 62.5669 19.5649C63.3014 18.6907 63.6966 17.5812 63.6799 16.4395C63.6799 16.0895 63.7899 15.9895 64.1499 15.9895C66.6899 15.9895 69.2199 15.9895 71.7599 15.9895C72.1699 15.9895 72.2399 16.1095 72.2099 16.4895C71.9199 19.8995 70.9299 23.0195 68.3099 25.3995C66.5518 26.9476 64.3858 27.9577 62.0699 28.3095C58.4178 29.0207 54.6498 28.8631 51.0699 27.8495C49.2272 27.3742 47.5505 26.4019 46.2226 25.0388C44.8947 23.6757 43.9667 21.974 43.5399 20.1195C42.5648 16.4092 42.5648 12.5099 43.5399 8.79952C43.9337 6.94643 44.831 5.23786 46.133 3.86172C47.435 2.48559 49.0914 1.49521 50.9199 0.999521C55.3885 -0.389853 60.1806 -0.340883 64.6199 1.13952C68.8099 2.56952 71.1099 5.65952 71.8799 9.96952C71.9599 10.4695 71.9998 10.9695 72.0898 11.4995C72.1798 12.0295 71.9999 11.9195 71.6799 11.9195C70.4199 11.9195 69.1499 11.9195 67.8899 11.9195Z" fill="white"/>
<path d="M11.63 0.649338H22.63C23.02 0.649338 23.15 0.729338 23.15 1.14934C23.15 3.25934 23.15 5.35934 23.15 7.46934C23.15 7.87934 23.01 7.93934 22.65 7.93934C20.6 7.93934 18.54 7.93934 16.49 7.93934C15.94 7.93934 15.86 8.10934 15.86 8.59934C15.86 14.9293 15.86 21.2693 15.86 27.5993C15.86 28.0793 15.74 28.1993 15.27 28.1893C12.7567 28.1893 10.2533 28.1893 7.76 28.1893C7.26 28.1893 7.17 28.0293 7.18 27.5793C7.18 21.2293 7.18 14.8793 7.18 8.51934C7.18 8.03934 7.04 7.92934 6.58 7.93934C4.53 7.93934 2.47 7.93934 0.42 7.93934C0.1 7.92934 0 7.82934 0 7.43934C0 5.32934 0 3.22934 0 1.11934C0 0.729338 0.11 0.629338 0.49 0.639338H11.63" fill="white"/>
<path d="M37.2599 14.3995C37.2599 18.8195 37.2599 23.2362 37.2599 27.6495C37.2599 28.0695 37.1499 28.1595 36.7499 28.1495H29.1999C28.7999 28.1495 28.6699 28.0595 28.6699 27.6395C28.6699 18.8062 28.6699 9.97288 28.6699 1.13955C28.6699 0.699548 28.8099 0.629548 29.1899 0.639548C31.7099 0.639548 34.1899 0.639548 36.7499 0.639548C37.1599 0.639548 37.2699 0.739548 37.2599 1.14955C37.2599 5.56288 37.2599 9.97955 37.2599 14.3995Z" fill="white"/>
</g>
<defs>
<clipPath id="clip0_2647_2">
<rect width="72.21" height="28.75" fill="white"/>
</clipPath>
</defs>
</svg>

<svg xmlns="http://www.w3.org/2000/svg" viewBox="0 0 72.21 28.75"><g id="Layer_2" data-name="Layer 2"><g id="Vrstva_1" data-name="Vrstva 1"><path d="M67.89,11.92H64.06c-.21,0-.37,0-.44-.28C62.94,8.67,62,7.76,59,7.4a11.58,11.58,0,0,0-4,.23,4,4,0,0,0-3.21,3.2,15.3,15.3,0,0,0,0,7.12A4,4,0,0,0,55,21.15a11,11,0,0,0,4.68.05,4.75,4.75,0,0,0,4-4.76c0-.35.11-.45.47-.45,2.54,0,5.07,0,7.61,0,.41,0,.48.12.45.5-.29,3.41-1.28,6.53-3.9,8.91a12.22,12.22,0,0,1-6.24,2.91,23.73,23.73,0,0,1-11-.46,10.39,10.39,0,0,1-7.53-7.73,22.27,22.27,0,0,1,0-11.32A10.3,10.3,0,0,1,50.92,1a22.34,22.34,0,0,1,13.7.14c4.19,1.43,6.49,4.52,7.26,8.83.08.5.12,1,.21,1.53s-.09.42-.41.42c-1.26,0-2.53,0-3.79,0Z"/><path d="M11.63.65h11c.39,0,.52.08.52.5,0,2.11,0,4.21,0,6.32,0,.41-.14.47-.5.47-2.05,0-4.11,0-6.16,0-.55,0-.63.17-.63.66,0,6.33,0,12.67,0,19,0,.48-.12.6-.59.59q-3.77,0-7.51,0c-.5,0-.59-.16-.58-.61,0-6.35,0-12.7,0-19.06,0-.48-.14-.59-.6-.58-2.05,0-4.11,0-6.16,0C.1,7.93,0,7.83,0,7.44,0,5.33,0,3.23,0,1.12,0,.73.11.63.49.64H11.63"/><path d="M37.26,14.4q0,6.63,0,13.25c0,.42-.11.51-.51.5H29.2c-.4,0-.53-.09-.53-.51q0-13.25,0-26.5c0-.44.14-.51.52-.5,2.52,0,5,0,7.56,0,.41,0,.52.1.51.51q0,6.62,0,13.25"/></g></g></svg>
